icon-themes/sifr_svg/cmd/lc_insertenvelope.svg

<svg viewBox="0 0 24 24" xmlns="http://www.w3.org/2000/svg"><path d="m12 4-9 6v11h18v-11zm0 2.4042969 5.720703 3.8125001-5.052734 3.783203h-1.335938l-5.0527341-3.783203zm-7 5.2324221 4.5 2.863281-4.5 4.5zm14 0v7.363281l-4.5-4.5zm-8.416016 4.363281h2.832032l2.833984 3h-8.5z" fill="#555753"/></svg>

<svg xmlns="http://www.w3.org/2000/svg" viewBox="0 0 24 24">
  <path
     style="fill:#555753"
     d="M 12 4 L 3 10 L 3 21 L 21 21 L 21 10 L 12 4 z M 12 6.4042969 L 17.720703 10.216797 L 12.667969 14 L 11.332031 14 L 6.2792969 10.216797 L 12 6.4042969 z M 5 11.636719 L 9.5 14.5 L 5 19 L 5 11.636719 z M 19 11.636719 L 19 19 L 14.5 14.5 L 19 11.636719 z M 10.583984 16 L 13.416016 16 L 16.25 19 L 7.75 19 L 10.583984 16 z "
     />
</svg>
